assets/svgs/valentine-color/ValentineColor14.svg

<svg xmlns="http://www.w3.org/2000/svg" data-name="Layer 1" viewBox="0 0 128 128"><path fill="#fff3f3" d="M41.698 28.086h49v71.828h-49z"/><path fill="#fc574f" d="M74.025 43.16a5.635 5.635 0 00-7.827-.133 5.632 5.632 0 00-7.968 7.953l-.007.007.148.148 7.829 7.827 7.827-7.827.148-.148-.007-.007a5.635 5.635 0 00-.143-7.82zM43.469 39.75h-3.542a2.625 2.625 0 01-2.627-2.625 2.625 2.625 0 012.627-2.625h3.542a2.625 2.625 0 012.625 2.625 2.625 2.625 0 01-2.625 2.625zM43.469 66.625h-3.542A2.625 2.625 0 0137.3 64a2.625 2.625 0 012.625-2.625h3.542A2.625 2.625 0 0146.094 64a2.625 2.625 0 01-2.625 2.625zM43.469 93.5h-3.542a2.625 2.625 0 01-2.627-2.625 2.625 2.625 0 012.625-2.625h3.542a2.625 2.625 0 012.625 2.625 2.625 2.625 0 01-2.623 2.625z"/><path fill="#30317b" d="M65.314 59.846a1.249 1.249 0 001.768 0l7.975-7.975a1.343 1.343 0 00.143-.171 6.883 6.883 0 00-9-10.265A6.883 6.883 0 0057.192 51.7a1.233 1.233 0 00.149.179zm-6.06-15.8a4.371 4.371 0 016.091-.1 1.251 1.251 0 001.705 0 4.382 4.382 0 016.2 6.188 1.164 1.164 0 00-.078.093L66.2 57.194l-6.976-6.977a1.26 1.26 0 00-.075-.089 4.37 4.37 0 01.106-6.084zM52.679 69.18a1.25 1.25 0 001.25 1.25h24.539a1.25 1.25 0 000-2.5H53.929a1.25 1.25 0 00-1.25 1.25zM53.929 79.084h24.539a1.25 1.25 0 000-2.5H53.929a1.25 1.25 0 000 2.5zM53.929 87.738h24.539a1.25 1.25 0 000-2.5H53.929a1.25 1.25 0 000 2.5zM41.7 43.125a1.25 1.25 0 00-1.25 1.25v15.75h-.521a3.875 3.875 0 000 7.75h3.542a3.875 3.875 0 000-7.75h-.521v-15.75a1.25 1.25 0 00-1.25-1.25zM44.844 64a1.377 1.377 0 01-1.375 1.375h-3.542a1.375 1.375 0 010-2.75h3.542A1.377 1.377 0 0144.844 64z"/><path fill="#30317b" d="M90.7 26.836h-49a1.25 1.25 0 00-1.25 1.25v5.164h-.521a3.875 3.875 0 000 7.75h3.542a3.875 3.875 0 000-7.75h-.521v-3.914h46.5v69.328H41.7a1.25 1.25 0 000 2.5h49a1.25 1.25 0 001.25-1.25V28.086a1.25 1.25 0 00-1.25-1.25zM44.844 37.125a1.377 1.377 0 01-1.375 1.375h-3.542a1.375 1.375 0 010-2.75h3.542a1.377 1.377 0 011.375 1.375z"/><path fill="#30317b" d="M47.344 90.875A3.879 3.879 0 0043.469 87h-.521V71.751a1.25 1.25 0 10-2.5 0V87h-.521a3.875 3.875 0 000 7.75h3.542a3.879 3.879 0 003.875-3.875zm-8.792 0a1.377 1.377 0 011.375-1.375h3.542a1.375 1.375 0 010 2.75h-3.542a1.377 1.377 0 01-1.375-1.375z"/></svg>

<svg id="Layer_1" data-name="Layer 1" xmlns="http://www.w3.org/2000/svg" viewBox="0 0 128 128"><title>VALENTINE MENU</title><rect x="41.698" y="28.086" width="49" height="71.828" style="fill:#fff3f3"/><path d="M74.025,43.16a5.635,5.635,0,0,0-7.827-.133A5.632,5.632,0,0,0,58.23,50.98l-.007.007.148.148L66.2,58.962l7.827-7.827.148-.148-.007-.007A5.635,5.635,0,0,0,74.025,43.16Z" style="fill:#fc574f"/><path d="M43.469,39.75H39.927A2.625,2.625,0,0,1,37.3,37.125h0A2.625,2.625,0,0,1,39.927,34.5h3.542a2.625,2.625,0,0,1,2.625,2.625h0A2.625,2.625,0,0,1,43.469,39.75Z" style="fill:#fc574f"/><path d="M43.469,66.625H39.927A2.625,2.625,0,0,1,37.3,64h0a2.625,2.625,0,0,1,2.625-2.625h3.542A2.625,2.625,0,0,1,46.094,64h0A2.625,2.625,0,0,1,43.469,66.625Z" style="fill:#fc574f"/><path d="M43.469,93.5H39.927A2.625,2.625,0,0,1,37.3,90.875h0a2.625,2.625,0,0,1,2.625-2.625h3.542a2.625,2.625,0,0,1,2.625,2.625h0A2.625,2.625,0,0,1,43.469,93.5Z" style="fill:#fc574f"/><path d="M65.314,59.846a1.249,1.249,0,0,0,1.768,0l7.975-7.975A1.343,1.343,0,0,0,75.2,51.7a6.883,6.883,0,0,0-9-10.265A6.883,6.883,0,0,0,57.192,51.7a1.233,1.233,0,0,0,.149.179Zm-6.06-15.8a4.371,4.371,0,0,1,6.091-.1,1.251,1.251,0,0,0,1.705,0,4.382,4.382,0,0,1,6.2,6.188,1.164,1.164,0,0,0-.078.093L66.2,57.194l-6.976-6.977c-.023-.03-.049-.061-.075-.089A4.37,4.37,0,0,1,59.255,44.044Z" style="fill:#30317b"/><path d="M52.679,69.18a1.25,1.25,0,0,0,1.25,1.25H78.468a1.25,1.25,0,0,0,0-2.5H53.929A1.25,1.25,0,0,0,52.679,69.18Z" style="fill:#30317b"/><path d="M53.929,79.084H78.468a1.25,1.25,0,0,0,0-2.5H53.929a1.25,1.25,0,0,0,0,2.5Z" style="fill:#30317b"/><path d="M53.929,87.738H78.468a1.25,1.25,0,0,0,0-2.5H53.929a1.25,1.25,0,0,0,0,2.5Z" style="fill:#30317b"/><path d="M41.7,43.125a1.25,1.25,0,0,0-1.25,1.25v15.75h-.521a3.875,3.875,0,0,0,0,7.75h3.542a3.875,3.875,0,0,0,0-7.75h-.521V44.375A1.25,1.25,0,0,0,41.7,43.125ZM44.844,64a1.377,1.377,0,0,1-1.375,1.375H39.927a1.375,1.375,0,0,1,0-2.75h3.542A1.377,1.377,0,0,1,44.844,64Z" style="fill:#30317b"/><path d="M90.7,26.836h-49a1.25,1.25,0,0,0-1.25,1.25V33.25h-.521a3.875,3.875,0,0,0,0,7.75h3.542a3.875,3.875,0,0,0,0-7.75h-.521V29.336h46.5V98.664H41.7a1.25,1.25,0,0,0,0,2.5h49a1.25,1.25,0,0,0,1.25-1.25V28.086A1.25,1.25,0,0,0,90.7,26.836ZM44.844,37.125A1.377,1.377,0,0,1,43.469,38.5H39.927a1.375,1.375,0,0,1,0-2.75h3.542A1.377,1.377,0,0,1,44.844,37.125Z" style="fill:#30317b"/><path d="M47.344,90.875A3.879,3.879,0,0,0,43.469,87h-.521V71.751a1.25,1.25,0,1,0-2.5,0V87h-.521a3.875,3.875,0,0,0,0,7.75h3.542A3.879,3.879,0,0,0,47.344,90.875Zm-8.792,0A1.377,1.377,0,0,1,39.927,89.5h3.542a1.375,1.375,0,0,1,0,2.75H39.927A1.377,1.377,0,0,1,38.552,90.875Z" style="fill:#30317b"/></svg>
